X: 29765
T: O Mother What Shall I Do
R: waltz
M: 3/4
K: Dmajor
]|:D3 E D2|F2 A2 B2|d3 ef>e|"tr"{e}d3 B A2|d2 B>d A>d|B4 b2|a2 ba gf|
"tr"e4 {de}d2|"tr"{G}F3 E D2|F2 A2 B2|d2 d>e f>e|"tr"d3 B A2|~B3 c d2|
"tr"A2 {G}F2 A2|B>c d2 F>G|"tr"{F}E4 D2:|:f>g a2 a2|ag f2 a2|b2 a2 g>a|
"tr"{g}f3 e d2|f>a b2 b>c'|"tr"b4 a2|d2 d>e f>g|"tr"{g}e4 d2|"tr"fe de fg|
a>g f2 a2|b2 "tr"a2 g2|a>g "tr"f>e d2|B3 c d2|"tr"A2 {G}F2 A2|B>c d2 F>G|
"tr"{F}E4 D2:|

